X: 012084
T: Aghada
C: Joe Liddy
Z: BB
S: "The Leitrim Fiddler" (Dublin 1981)
L: 1/8
M: 6/8
R: jig
Q: 1/4 = 170
K: Ador
B/d/ | eAA BAG | EAA GED | EAA BAG | ABd efg |
eAA BAG | AGE GED | ABA ged | BAG A2 :|
d | eaa gab | age dBd | eAA edB | dBA GBd |
eae ged | edB AGE | ABA ged | BAG A2 :|
%%%%%%%%%%%
